X: 25927
T: Maura McGlynn's
R: jig
M: 6/8
K: Gmajor
|:d2c BAG|E/F/GE CEG|DFA cBA|GBe dBc|
dge dBG|E/F/GE CEG|DFc BDF|1 AGF GBc:|2 AGF G2D||
|:GBd gfg|ece dBG|A^ce a2g|f/g/af def|
gfg dBG|E/F/GE CEG|DFc BDF|AGF G3:|

